X: 32488
T: Plan B
R: barndance
M: 4/4
K: Dminor
|:DFAG- GE-EF-|FEFD EEE2|DFAG- GE-EF-|FEDC A,A,A,2|
DFAG- GE-EF-|FEFD EEE2|DFAG- GE-EF-|FEDC DDD2:|
|:a^ga2 f3 e-|ede^c d3 e|a^ga=b c'3 =b-|b^g=b^g a4|
a^ga2 f3 e-|ede^c d3 G,|A,CDE FAde|fde^c d4:|

